Numix/64/actions/document-revert-rtl.svg

<?xml version="1.0" encoding="UTF-8" standalone="no"?>
<svg
   xmlns:dc="http://purl.org/dc/elements/1.1/"
   xmlns:cc="http://creativecommons.org/ns#"
   xmlns:rdf="http://www.w3.org/1999/02/22-rdf-syntax-ns#"
   xmlns:svg="http://www.w3.org/2000/svg"
   xmlns="http://www.w3.org/2000/svg"
   xmlns:sodipodi="http://sodipodi.sourceforge.net/DTD/sodipodi-0.dtd"
   xmlns:inkscape="http://www.inkscape.org/namespaces/inkscape"
   width="64"
   height="64"
   viewBox="0 0 64 64"
   id="svg2"
   version="1.1"
   inkscape:version="0.91 r13725"
   sodipodi:docname="document-revert-rtl.svg">
  <metadata
     id="metadata12">
    <rdf:RDF>
      <cc:Work
         rdf:about="">
        <dc:format>image/svg+xml</dc:format>
        <dc:type
           rdf:resource="http://purl.org/dc/dcmitype/StillImage" />
        <dc:title></dc:title>
      </cc:Work>
    </rdf:RDF>
  </metadata>
  <defs
     id="defs10" />
  <sodipodi:namedview
     pagecolor="#ffffff"
     bordercolor="#666666"
     borderopacity="1"
     objecttolerance="10"
     gridtolerance="10"
     guidetolerance="10"
     inkscape:pageopacity="0"
     inkscape:pageshadow="2"
     inkscape:window-width="1366"
     inkscape:window-height="704"
     id="namedview8"
     showgrid="false"
     inkscape:zoom="7.763916"
     inkscape:cx="4.694192"
     inkscape:cy="32"
     inkscape:window-x="0"
     inkscape:window-y="27"
     inkscape:window-maximized="1"
     inkscape:current-layer="svg2" />
  <path
     style="fill:#ffffff;fill-rule:evenodd"
     d="M 49.144531,0 14.855469,0 C 8,0 8,0 8,7.109375 l 0,49.78125 C 8,64 8,64 14.855469,64 l 34.289062,0 C 56,64 56,64 56,56.890625 L 56,7.109375 C 56,0 56,0 49.144531,0 Z"
     id="path4"
     inkscape:connector-curvature="0" />
  <path
     style="fill:#859900"
     d="M 20,56 C 14.679688,56 10.660156,56 8,56 8,56 0,56.25 0,44 0,31.75 8,31.164062 8,31.164062 8,40.558594 9.359375,40 20,40 20,36.867188 19.476562,33.480469 22.136719,33.480469 L 36,46.652344 c 0.863281,0.824218 0.882812,2.398437 0,3.203125 L 22.238281,62.347656 C 19.578125,62.347656 20,59.046875 20,56 Z"
     id="path6"
     inkscape:connector-curvature="0" />
</svg>

<svg xmlns="http://www.w3.org/2000/svg" viewBox="0 0 64 64">
 <path d="M 49.144531,0 14.855469,0 C 8,0 8,0 8,7.109375 l 0,49.78125 C 8,64 8,64 14.855469,64 l 34.289062,0 C 56,64 56,64 56,56.890625 L 56,7.109375 C 56,0 56,0 49.144531,0 Z" style="fill:#fff;fill-rule:evenodd"/>
 <path d="m 20 56 c -5.32 0 -9.34 0 -12 0 0 0 -8 0.25 -8 -12 0 -12.25 8 -12.836 8 -12.836 0 9.395 1.359 8.836 12 8.836 0 -3.133 -0.523 -6.52 2.137 -6.52 l 13.863 13.172 c 0.863 0.824 0.883 2.398 0 3.203 l -13.762 12.492 c -2.66 0 -2.238 -3.301 -2.238 -6.348" style="fill:#859900"/>
</svg>
